X: 9
T: Missa Ave regina celorum / Sanctus
N: Derived from Obr1002d-Missa_Ave_regina_celorum-Sanctus.krn
C: Jacob Obrecht
%%abc-version 2.0
%%abcx-abcm2ps-target-version 5.9.1 (29 Sep 2008)
%%abc-creator hum2abc beta
%%abcx-conversion-date 2019/02/17 07:23:44
%%abc-edited-by Jesse Rodin
%%abc-edited-by Jesse Rodin 8/27/2013
%%abcx-initial-encoding-date 2013/08/27/
%%humdrum-veritas 1297478665
%%humdrum-veritas-data 1369638777
%%linebreak <none>
%%barnumbers 0
L: 1/4
M: 3/1
Q: 1/2=120
%%staves [1 2 3 4]
V: 1 clef=treble
V: 2 clef=treble-8
V: 3 clef=treble-8
V: 4 clef=bass
K: F
[V:1] F8F2A2- | 
[V:2] c4A4F4 | 
[V:3] c8A4 | 
[V:4] F,8F,2D,2 | 
[V:1] AGF2E3FG2C2 | 
[V:2] z4z2G4A2 | 
[V:3] F4G4B2A2 | 
[V:4] D,4C,3B,,/A,,/G,,2F,,2 | 
[V:1] D3EF2E2CF2E | 
[V:2] B2A2F2z4G2 | 
[V:3] F4z2G2A2B2 | 
[V:4] B,,2D,4E,2F,A,G,2 | 
[V:1] !fermata!F12 | 
[V:2] A3Bc4!fermata!A4 | 
[V:3] !fermata!c12 | 
[V:4] !fermata!F,12 | 
[V:1] A6B4A2 | 
[V:2] z12 | 
[V:3] f4f4e4 | 
[V:4] F,4D,2B,,2C,4 | 
[V:1] B4A2G2c4 | 
[V:2] f6e2e4 | 
[V:3] d4c3BA2G2 | 
[V:4] B,,4F,,2C,6 | 
[V:1] B2A3GF4E2 | 
[V:2] d2z2z4c3B | 
[V:3] F2c4A2G4 | 
[V:4] D,2C,2F,4C,4 | 
[V:1] F2c3BA3GF2- | 
[V:2] A3GF2c4A2 | 
[V:3] F12 | 
[V:4] F,,8z2F,,2 | 
[V:1] F2E2F4E3F/G/ | 
[V:2] G4F4z2c2- | 
[V:3] z2c4A2G4 | 
[V:4] C,4F,,G,,A,,B,,C,4 | 
[V:1] A2F4E2F4 | 
[V:2] c2A2G4F4 | 
[V:3] F4B4A4 | 
[V:4] F,,4z4F,,4 | 
[V:1] z2F2E2D2CE2D/C/ | 
[V:2] c2A2G4z2c2 | 
[V:3] G2c4B2c4 | 
[V:4] G,,2F,,2G,,4A,,4 | 
[V:1] D2C2E3DEFD2 | 
[V:2] B2c2z2G2A2G2 | 
[V:3] G2A2G2c4B2 | 
[V:4] z2A,,2C,3B,,A,,F,,G,,2 | 
[V:1] z2C2F3E/D/CF2E | 
[V:2] z2c4B2c4 | 
[V:3] c4F4A2G2 | 
[V:4] A,,F,,F,4B,,2F,2C,2 | 
[V:1] F3E/D/CF2EF2D2 | 
[V:2] z2F2A2G2F4 | 
[V:3] F4z2c2A2B2 | 
[V:4] D,3C,/B,,/A,,F,,C,2F,,2B,,2 | 
[V:1] E2F3A2G2F2E | 
[V:2] z4z2c2A2B2 | 
[V:3] c8z2G2 | 
[V:4] A,,2F,,2F,3E,F,A,G,2 | 
[V:1] FCD2CA,2A2G/F/E2 | 
[V:2] c2G2A3Bc2c2- | 
[V:3] A2B2c4z2G2 | 
[V:4] F,2z2F,6C,2 | 
[V:1] CF2EF2zB2GA2- | 
[V:2] cAG2FA2GB2A2 | 
[V:3] A2B2c3BG2F2 | 
[V:4] F,2G,2A,F,2G,E,2F,2- | 
[V:1] AF2E/D/E3DCF2E | 
[V:2] z2c3BG2z4 | 
[V:3] A4G4z2B2 | 
[V:4] F,D,F,2C,3B,,A,,F,,G,,2 | 
[V:1] F2A2G2F4E2 | 
[V:2] z2F2E2F2G4 | 
[V:3] A2c4A2G4 | 
[V:4] F,,4C,2D,2B,,2C,2 | 
[V:1] F2B2GA2G/F/EF2E | 
[V:2] F4z4c4- | 
[V:3] z2F2E2F2G4 | 
[V:4] D,2B,,2C,2D,2C,4 | 
[V:1] F12 ||  
[V:2] c12 ||  
[V:3] F12 ||  
[V:4] F,,12 ||  
[V:1]  [K:F] [K:clef=treble][M:2/1]z8 | 
[V:2]  [K:F] [K:clef=treble-8][M:2/1]z8 | 
[V:3]  [K:F] [K:clef=treble-8][M:2/1]z8 | 
[V:4]  [K:F] [K:clef=bass][M:2/1]F,,3G,,A,,2B,,2- | 
[V:1] z8 | 
[V:2] F4F3G | 
[V:3] z8 | 
[V:4] B,,2A,,G,,F,,2F,2- | 
[V:1] z8 | 
[V:2] ABc2B2d2- | 
[V:3] z8 | 
[V:4] F,2E,2D,2F,2- | 
[V:1] F4F3G | 
[V:2] dcc4=B2 | 
[V:3] z8 | 
[V:4] F,E,D,C,D,4 | 
[V:1] ABc2B2d2- | 
[V:2] c4z2f2- | 
[V:3] z8 | 
[V:4] C,4z4 | 
[V:1] dcc4B2 | 
[V:2] fce2d4 | 
[V:3] z8 | 
[V:4] z8 | 
[V:1] c2A4G2- | 
[V:2] c4f2e2 | 
[V:3] z8 | 
[V:4] F,,3G,,A,,B,,C,2 | 
[V:1] GFF2D2E2 | 
[V:2] d2A2B2c2 | 
[V:3] z8 | 
[V:4] B,,2D,3C,C,2- | 
[V:1] C2F4E2 | 
[V:2] A2B2G4 | 
[V:3] z8 | 
[V:4] C,2B,,2C,4 | 
[V:1] F8 | 
[V:2] F4z2f2- | 
[V:3] z8 | 
[V:4] F,,2F,3E,D,2 | 
[V:1] z8 | 
[V:2] fed2c2d2 | 
[V:3] z8 | 
[V:4] C,2D,2A,,2F,2- | 
[V:1] z8 | 
[V:2] A4z2c2- | 
[V:3] z8 | 
[V:4] F,2E,D,E,D,C,B,, | 
[V:1] z8 | 
[V:2] cBAGA2B2- | 
[V:3] z8 | 
[V:4] A,,2F,3E,D,2 | 
[V:1] z8 | 
[V:2] BAA4G2 | 
[V:3] z8 | 
[V:4] A,,2C,2B,,4 | 
[V:1] z2c3BAG | 
[V:2] A4z2f2- | 
[V:3] z8 | 
[V:4] A,,8 | 
[V:1] A2B3AA2- | 
[V:2] fed2A2c2 | 
[V:3] z8 | 
[V:4] z8 | 
[V:1] A2G2A4 | 
[V:2] B4A3B | 
[V:3] z8 | 
[V:4] z4z2F,2- | 
[V:1] z2A4G2- | 
[V:2] c2d2f2e2- | 
[V:3] z8 | 
[V:4] F,E,D,2A,,2C,2 | 
[V:1] GFD2E4 | 
[V:2] edd4^c2 | 
[V:3] z8 | 
[V:4] B,,4A,,2A,2 | 
[V:1] D4z2A2- | 
[V:2] d2B3AF2 | 
[V:3] z8 | 
[V:4] F,2G,3F,D,2 | 
[V:1] AGG4^F2 | 
[V:2] G4A4 | 
[V:3] z8 | 
[V:4] E,4D,4 | 
[V:1] G4G2A2- | 
[V:2] G2B3cA2 | 
[V:3] z8 | 
[V:4] z2G,2E,2F,2- | 
[V:1] AGG3FF2- | 
[V:2] c3BA2F2 | 
[V:3] z8 | 
[V:4] F,E,C,2D,4 | 
[V:1] F2E2F4 | 
[V:2] G4F3E | 
[V:3] z8 | 
[V:4] z2C,2A,,2B,,2- | 
[V:1] z8 | 
[V:2] DCF4E2 | 
[V:3] z8 | 
[V:4] B,,A,,F,,2G,,4 | 
[V:1] z2c2A2B2- | 
[V:2] F2f4g2- | 
[V:3] z8 | 
[V:4] F,,4z4 | 
[V:1] BAF2G4 | 
[V:2] gff4e2 | 
[V:3] z8 | 
[V:4] z8 | 
[V:1] F3EDCF2- | 
[V:2] f2F3GA2 | 
[V:3] z8 | 
[V:4] z8 | 
[V:1] F2E2F4 | 
[V:2] G4FGAB | 
[V:3] z8 | 
[V:4] z8 | 
[V:1] E2F3EC2 | 
[V:2] c2d3cc2- | 
[V:3] z8 | 
[V:4] z8 | 
[V:1] D4C4- | 
[V:2] c2B2A2GF | 
[V:3] z8 | 
[V:4] z4z2F,2 | 
[V:1] C8 | 
[V:2] G2A3GG2 | 
[V:3] z8 | 
[V:4] E,2F,3E,C,2 | 
[V:1] B,4C4 | 
[V:2] F2f2e3d/c/ | 
[V:3] z8 | 
[V:4] D,4C,4 | 
[V:1] z2G4F2 | 
[V:2] d2e3dd2- | 
[V:3] z8 | 
[V:4] B,,2C,2D,4 | 
[V:1] E4D3E | 
[V:2] d2^c2d2f2- | 
[V:3] z8 | 
[V:4] A,,4B,,2D,2- | 
[V:1] FGA2G2c2- | 
[V:2] fedcg2c2 | 
[V:3] z8 | 
[V:4] D,E,F,2C,4 | 
[V:1] c2=B2c3_B | 
[V:2] d4c4 | 
[V:3] z8 | 
[V:4] G,4C,3D, | 
[V:1] G2A4GF | 
[V:2] z8 | 
[V:3] z8 | 
[V:4] E,2F,4E,D, | 
[V:1] E2D2B3A | 
[V:2] z2B3AGF | 
[V:3] z8 | 
[V:4] C,2B,,2G,,4 | 
[V:1] G2F4E2 | 
[V:2] c2F2G4 | 
[V:3] z8 | 
[V:4] z2D,2B,,2C,2 | 
[V:1] F8- | 
[V:2] F8- | 
[V:3] z8 | 
[V:4] A,,2B,,3C,D,2- | 
[V:1] F8- | 
[V:2] F8- | 
[V:3] z8 | 
[V:4] D,C,B,,A,,B,,2A,,G,, | 
[V:1] F8 ||  
[V:2] F8 ||  
[V:3] z8 ||  
[V:4] F,,8 ||  
[V:1]  [K:F] [K:clef=treble][M:2/1]A8- | 
[V:2]  [K:F] [K:clef=treble-8][M:4/2]z8 :
[V:3]  [K:F] [K:clef=treble-8][M:4/2]c8- :
[V:4]  [K:F] [K:clef=bass][M:2/1]F,8- | 
[V:1] A8 | 
[V:2] z8 | 
[V:3] c8 | 
[V:4] F,8 | 
[V:1] A8 | 
[V:2] c8- :
[V:3] f8 :
[V:4] F,8 | 
[V:1] G4E4 | 
[V:2] c8 | 
[V:3] e4c4 | 
[V:4] C,8 | 
[V:1] D4z2D2 | 
[V:2] f8 :
[V:3] B8 :
[V:4] D,8 | 
[V:1] E2C2E3F | 
[V:2] e4c4 | 
[V:3] c8 | 
[V:4] C,8 | 
[V:1] G2FED4 | 
[V:2] B8 :
[V:3] z4G4 :
[V:4] z8 | 
[V:1] C4z2C2 | 
[V:2] c8 | 
[V:3] A4c4- | 
[V:4] F,6E,D, | 
[V:1] E3FG4 | 
[V:2] z4G4 :
[V:3] c4B4 :
[V:4] C,3D,E,4 | 
[V:1] F2A4GF | 
[V:2] A4c4- | 
[V:3] A4F4 | 
[V:4] F,6E,D, | 
[V:1] E4F4 | 
[V:2] c8 :
[V:3] G4A4 :
[V:4] C,4A,,4 | 
[V:1] G8 | 
[V:2] B4G4 | 
[V:3] B8 | 
[V:4] G,,8 | 
[V:1] F4FGAB | 
[V:2] A4F4 :
[V:3] A8 :
[V:4] D,8 | 
[V:1] c4A4- | 
[V:2] G4A4 | 
[V:3] z8 | 
[V:4] E,4F,4 | 
[V:1] A4G4 | 
[V:2] B8 :
[V:3] d8- :
[V:4] G,8 | 
[V:1] A8 | 
[V:2] A8 | 
[V:3] d8 | 
[V:4] D,6C,B,, | 
[V:1] A4F2A2- | 
[V:2] z4d4- :
[V:3] c4A4 :
[V:4] A,,4D,4 | 
[V:1] A2GFG4 | 
[V:2] d8 | 
[V:3] B8 | 
[V:4] G,,8 | 
[V:1] z2A3GFE | 
[V:2] c4A4 :
[V:3] A8 :
[V:4] z4D,4 | 
[V:1] D2G3FE2 | 
[V:2] B8 | 
[V:3] z4G4 | 
[V:4] G,4E,4 | 
[V:1] D2C2D4 | 
[V:2] A8 :
[V:3] F8 :
[V:4] F,4D,4 | 
[V:1] z4F4 | 
[V:2] G4F4 | 
[V:3] B4A4 | 
[V:4] E,4F,4 | 
[V:1] D4F4- | 
[V:2] B4A4 :
[V:3] F8 :
[V:4] B,,4F,,4 | 
[V:1] F2G2A2A2- | 
[V:2] F8- | 
[V:3] A4c4- | 
[V:4] z8 | 
[V:1] AGFED2F2- | 
[V:2] F8- :
[V:3] c4B4 :
[V:4] z4B,,4 | 
[V:1] F2EDC2D2 | 
[V:2] F8 | 
[V:3] A8 | 
[V:4] D,4F,4 | 
[V:1] E2F4E2 | 
[V:2] z8 :
[V:3] G8 :
[V:4] C,8 | 
[V:1] F6ED | 
[V:2] z4c4- | 
[V:3] F8- | 
[V:4] F,,6G,,2 | 
[V:1] C4D4 | 
[V:2] c4B4 :
[V:3] F8 :
[V:4] A,,4B,,4 | 
[V:1] C4F4- | 
[V:2] A8 | 
[V:3] z4c4- | 
[V:4] F,,8 | 
[V:1] F4E4 | 
[V:2] G8 :
[V:3] c4B4 :
[V:4] z8 | 
[V:1] F8 | 
[V:2] F8- | 
[V:3] c8 | 
[V:4] F,,8 | 
[V:1] F6G2 | 
[V:2] F8- :
[V:3] d8 :
[V:4] B,,8 | 
[V:1] A8 | 
[V:2] F8 | 
[V:3] c8- | 
[V:4] F,,4F,4- | 
[V:1] F4G4 | 
[V:2] z4c4- :
[V:3] c8 :
[V:4] F,4E,4 | 
[V:1] A6GF | 
[V:2] c4B4 | 
[V:3] f8 | 
[V:4] D,8 | 
[V:1] A2G4F2 | 
[V:2] c8- :
[V:3] e8- :
[V:4] C,6D,2 | 
[V:1] G4A4 | 
[V:2] c8 | 
[V:3] e4c4- | 
[V:4] E,4F,4 | 
[V:1] G4D4 | 
[V:2] z4d4 :
[V:3] c4f4 :
[V:4] E,2C,4B,,2 | 
[V:1] z8 | 
[V:2] c4f4- | 
[V:3] e4d4- | 
[V:4] C,4D,4 | 
[V:1] z4G4- | 
[V:2] f2e2e4- :
[V:3] d2c2c4- :
[V:4] B,,4C,4 | 
[V:1] G8- | 
[V:2] e2d2d4- | 
[V:3] c4B4 | 
[V:4] G,,8 | 
[V:1] G4E4 | 
[V:2] d2c2c4- :
[V:3] c8 :
[V:4] z4C,4 | 
[V:1] F8 | 
[V:2] c4=B4 | 
[V:3] F8 | 
[V:4] D,8 | 
[V:1] E4z2E2 | 
[V:2] c8 :
[V:3] A4G4 :
[V:4] C,8 | 
[V:1] F6ED | 
[V:2] z4F4 | 
[V:3] F8 | 
[V:4] D,6C,B,, | 
[V:1] C2F4E2 | 
[V:2] A4G4 :
[V:3] z4c4 :
[V:4] A,,2F,,2C,4 | 
[V:1] F4D4 | 
[V:2] F8 | 
[V:3] A4B4 | 
[V:4] D,4B,,4 | 
[V:1] E4C2c2- | 
[V:2] z8 :
[V:3] c8- :
[V:4] A,,2C,3B,,A,,G,, | 
[V:1] cBA4G2 | 
[V:2] z4c4 | 
[V:3] c8 | 
[V:4] F,,2F,4E,2 | 
[V:1] A4z2D2 | 
[V:2] A4B4 :
[V:3] z4G4 :
[V:4] F,4z4 | 
[V:1] F2E2D4 | 
[V:2] c4G4 | 
[V:3] A4B4 | 
[V:4] z8 | 
[V:1] C2c3BA2- | 
[V:2] A6B2 :
[V:3] c8 :
[V:4] F,8- | 
[V:1] A2GFE4 | 
[V:2] c4c4- | 
[V:3] z4G4 | 
[V:4] F,4C,4 | 
[V:1] z2F4E2 | 
[V:2] c2A2G4 :
[V:3] A4B4 :
[V:4] F,4G,4 | 
[V:1] F3GA2B2- | 
[V:2] F2A4G2 | 
[V:3] c6B2 | 
[V:4] A,2F,4G,2 | 
[V:1] B2G2A2c2- | 
[V:2] B4A4 :
[V:3] G4F4 :
[V:4] _E,4F,4- | 
[V:1] cBAGF4 | 
[V:2] z4c4- | 
[V:3] A8 | 
[V:4] F,8 | 
[V:1] G2E3DEF | 
[V:2] c2B2G4 :
[V:3] G8 :
[V:4] C,4C,3D, | 
[V:1] G2A4G2 | 
[V:2] z8 | 
[V:3] z4B4 | 
[V:4] E,2F,4E,2 | 
[V:1] A2c3BA2 | 
[V:2] z4F4 :
[V:3] A4c4- :
[V:4] F,4F,,4 | 
[V:1] G4F4- | 
[V:2] E4F4 | 
[V:3] c4A4 | 
[V:4] C,4D,4 | 
[V:1] F4E4 | 
[V:2] G8 :
[V:3] G8 :
[V:4] B,,4C,4 | 
[V:1] F2EDC2D2 | 
[V:2] F8 | 
[V:3] z4F4 | 
[V:4] D,2F,3E,D,2 | 
[V:1] E2C2D2F2- | 
[V:2] z8 :
[V:3] E4F4 :
[V:4] C,2E,2D,4 | 
[V:1] F2EDE4 | 
[V:2] c8- | 
[V:3] G8 | 
[V:4] C,8 | 
[V:1] F8 ||  
[V:2] c8 ||  
[V:3] F8 ||  
[V:4] F,,8 ||  
[V:1]  [K:F] [K:clef=treble][M:2/1]c8- :
[V:2]  [K:F] [K:clef=treble-8][M:2/1]z8 | 
[V:3]  [K:F] [K:clef=treble-8][M:2/1]c3de2f2- | 
[V:4]  [K:F] [K:clef=bass][M:2/1]z8 | 
[V:1] c8- :
[V:2] z8 | 
[V:3] f2ede2f2 | 
[V:4] z8 | 
[V:1] c8 | 
[V:2] c3de2f2- | 
[V:3] e2c2z2F2- | 
[V:4] z8 | 
[V:1] A8 :
[V:2] f2ede2f2 | 
[V:3] FGABc2A2 | 
[V:4] z8 | 
[V:1] B4d4- :
[V:2] g6fe | 
[V:3] z2G3ABc | 
[V:4] z8 | 
[V:1] d4c4 | 
[V:2] f2g2a4 | 
[V:3] d2B2z2A2- | 
[V:4] z4F,4- | 
[V:1] A8 :
[V:2] f4z2f2 | 
[V:3] ABcde2c2 | 
[V:4] F,2E,D,C,2F,2 | 
[V:1] G4B4 :
[V:2] e2d2g4 | 
[V:3] z2B3cde | 
[V:4] C,2G,4G,2 | 
[V:1] A2G2F4 | 
[V:2] z2c2A2B2 | 
[V:3] f2e2d4 | 
[V:4] F,2C,2D,4 | 
[V:1] !fermata!E8 :
[V:2] !fermata!c8 | 
[V:3] !fermata!G8 | 
[V:4] !fermata!C,8 | 
[V:1] A8 :
[V:2] F3GA2B2 | 
[V:3] z4F3G | 
[V:4] z8 | 
[V:1] A8 | 
[V:2] c2d2e2f2- | 
[V:3] A2F2c2F2 | 
[V:4] z8 | 
[V:1] G8 :
[V:2] f2ede4 | 
[V:3] c4c4 | 
[V:4] z8 | 
[V:1] F8 :
[V:2] f6ed | 
[V:3] F3GA2B2 | 
[V:4] z8 | 
[V:1] A4G4 | 
[V:2] e2d4cB | 
[V:3] c2d2G4 | 
[V:4] z8 | 
[V:1] c6B2 :
[V:2] A4z4 | 
[V:3] z4z2D2 | 
[V:4] F,,3G,,A,,2B,,2 | 
[V:1] A4G4- :
[V:2] z8 | 
[V:3] E2F2G3A | 
[V:4] C,2D,2G,,2G,2- | 
[V:1] G2F2F4- | 
[V:2] z8 | 
[V:3] B2c4d2- | 
[V:4] G,2A,4B,2- | 
[V:1] F4E4 :
[V:2] z8 | 
[V:3] dcBAB4 | 
[V:4] B,A,G,F,G,4 | 
[V:1] F8- :
[V:2] F3GA2B2 | 
[V:3] c4d4 | 
[V:4] F,3E,D,2B,,2 | 
[V:1] F8 | 
[V:2] c2d2c2f2- | 
[V:3] c2A3GA2 | 
[V:4] F,4F,E,D,C, | 
[V:1] z8 :
[V:2] f2ede4 | 
[V:3] B2F2G4 | 
[V:4] B,,2D,2C,4 | 
[V:1] A8 :
[V:2] f4F4 | 
[V:3] z2F3GAB | 
[V:4] F,,4z4 | 
[V:1] G4A4 | 
[V:2] z2B2A2F2 | 
[V:3] c2d2e2f2- | 
[V:4] z8 | 
[V:1] B8 :
[V:2] G4G4 | 
[V:3] f2ede4 | 
[V:4] z8 | 
[V:1] A8 :
[V:2] F4z2f2 | 
[V:3] f4z2F2 | 
[V:4] F,,G,,A,,B,,C,2D,2 | 
[V:1] z4G4- | 
[V:2] e2d4e2- | 
[V:3] G2A2B2c2 | 
[V:4] E,2F,2G,2C,2- | 
[V:1] G4F4 :
[V:2] edc4=B2 | 
[V:3] G4z4 | 
[V:4] C,2E,2D,4 | 
[V:1] E8 :
[V:2] c8 | 
[V:3] G2A2G2c2- | 
[V:4] C,8 | 
[V:1] D8 | 
[V:2] G4z4 | 
[V:3] c2=BA=B4 | 
[V:4] z8 | 
[V:1] C4G4- :
[V:2] G2A2G2c2- | 
[V:3] c4z4 | 
[V:4] C,4C,3D, | 
[V:1] G4F4 :
[V:2] c2=BA=B4 | 
[V:3] z8 | 
[V:4] E,3F,D,4 | 
[V:1] E8 | 
[V:2] c8 | 
[V:3] G2A2G2c2- | 
[V:4] C,8 | 
[V:1] D8 :
[V:2] z8 | 
[V:3] c2=BA=B4 | 
[V:4] F,4G,4 | 
[V:1] C8 :
[V:2] c3de2f2- | 
[V:3] c3BAGA2- | 
[V:4] A,6F,2 | 
[V:1] z4c4- | 
[V:2] f2ede4 | 
[V:3] A2GFG4 | 
[V:4] D,2F,2C,4 | 
[V:1] c4B4 :
[V:2] f2F2G4 | 
[V:3] F2f4e2 | 
[V:4] F,,4z4 | 
[V:1] A8 :
[V:2] F2A3Bc2- | 
[V:3] f4c4 | 
[V:4] z2F,,3G,,A,,B,, | 
[V:1] G4E4 | 
[V:2] cBGAB2A2 | 
[V:3] z4z2c2- | 
[V:4] C,D,E,F,G,2A,2- | 
[V:1] F4G4 :
[V:2] c2B2d2c2- | 
[V:3] c2d4e2- | 
[V:4] A,2B,4C2- | 
[V:1] E8 :
[V:2] cdefg2e2 | 
[V:3] edc2B2c2- | 
[V:4] CB,A,2G,2A,2- | 
[V:1] z4C4 | 
[V:2] f4z2F2 | 
[V:3] c2BAG2A2- | 
[V:4] A,2G,F,E,2F,2- | 
[V:1] D4E4 :
[V:2] A2B2c3d | 
[V:3] A2GFG2A2- | 
[V:4] F,2E,D,C,4 | 
[V:1] C8 :
[V:2] e2f2c2f2- | 
[V:3] A2GFG2A2 | 
[V:4] z2F,2E,2F,2 | 
[V:1] z4G4 | 
[V:2] f2ede4 | 
[V:3] B4G4 | 
[V:4] B,,4C,4 | 
[V:1] A4B4 :
[V:2] f4d4 | 
[V:3] F4G4 | 
[V:4] F,,4z4 | 
[V:1] c8 :
[V:2] c4cBAG | 
[V:3] A4z2A2- | 
[V:4] F,8- | 
[V:1] A4G4- | 
[V:2] F2f4ed | 
[V:3] A2c4BA | 
[V:4] F,4C,4 | 
[V:1] G4A4- :
[V:2] e4f3e | 
[V:3] G4F4 | 
[V:4] z2C,2F,2D,2 | 
[V:1] A4F4 :
[V:2] d2c4B2 | 
[V:3] z4F3G | 
[V:4] F,4D,4 | 
[V:1] E4G4- | 
[V:2] c3BG2c2- | 
[V:3] ABc2B2_e2- | 
[V:4] C,4z4 | 
[V:1] G2F2E2D2 :
[V:2] cGB2c2G2 | 
[V:3] e2d2c2B2 | 
[V:4] z4z2G,,2 | 
[V:1] C8 :
[V:2] z2G2A4 | 
[V:3] A2G3FF2- | 
[V:4] A,,2C,3B,,A,,2 | 
[V:1] z4F4 | 
[V:2] B2G2A4 | 
[V:3] F2E2F4 | 
[V:4] G,,4F,,2F,2 | 
[V:1] G4B4 :
[V:2] G2g3fd2- | 
[V:3] z2c2d2B2 | 
[V:4] E,2C,2G,4 | 
[V:1] A8 :
[V:2] def3ec2- | 
[V:3] f3edcf2- | 
[V:4] D,4F,4 | 
[V:1] G4F4- | 
[V:2] cBG2B2A2- | 
[V:3] f2e2d2c2- | 
[V:4] C,4z2F,,2- | 
[V:1] F4E4 :
[V:2] ABcdc4 | 
[V:3] c2BAG4 | 
[V:4] F,,G,,A,,B,,C,4 | 
[V:1] F8- :
[V:2] A3Bc2d2 | 
[V:3] F8- | 
[V:4] F,,3G,,A,,2B,,2- | 
[V:1] F8- | 
[V:2] B8 | 
[V:3] F8- | 
[V:4] B,,2A,,G,,B,,3A,, | 
[V:1] F8 ||  
[V:2] c8 ||  
[V:3] F8 ||  
[V:4] F,,8 ||  



